X:109
T:Sea,The(2),First Part. JBs.109
S:Jas.Blackshaw MS, 1837, N.Shropshire
A:North Shropshire
Z:T. Weatherall 2006
M:6/8
L:1/8
Q:3/8=100
R:Quickstep
K:C
G|(c3c c2)|def GAB|c2zz2 e|d(e/d/c/B/) c(d/c/B/A/)|Bc/B/A/G/ AB/A/G/F/|!
G/F/G/A/B/c/ de^f|gg/^f/g/^f/g2||G|c3czG|e3ezc|d3G3|c2zz2G|d2Bc2A|!
B2GA2^F|G2B dcA|G2dâ€™/dâ€™/dâ€™2b/b/|b2g>g abg|g2d/c/B/A/G2d/c/B/A/|!
G2GG2A|B2BBAB|c2ccA^F|D2D E^FG|^F3^fbf|g2g2d|B3BAB|d3dzB|c3cec|!
B3 zz G|G^FE^D2D|EDC|B,2B|cBA G^FE|A3B3|Ez2bbb|b3b3|a3a3|]

